X:1
T:Title
%%score [ 1 2 3 4 ]
L:1/8
Q:1/4=96
M:4/4
K:Cmin
V:1 treble nm="Soprano"
V:2 treble nm="Alto"
V:3 treble-8 nm="Tenor"
V:4 bass nm="Bass"
V:1
 G4 G2 G2 | G4 G4 | z2 G2 G2 G2 | B8 | B4 z2 B2 | B2 B2 B3 B | B2 B2 B2 B2 | B6 =A2 | B8 | B8 | %10
w: P—- pu- le|me- us,|quid fe- ci|ti-|bi? aut|in quo con- tri-|sta- vi- te? Res-|pon- de|mi-|hi.|
 G4 G4 | z2 G2 G2 A2 | B6 B2 | c4 c2 c2 | B6 =A2 | B2 B2 c4 | B4 A4 | G4 G2 G2 | F4 A4 | G4 A4 | %20
w: Qui- a|e- du- xi-|te de|ter- ra Ae-|gyp- *|ti, pa- ra-|sti cru-|cem Sal- va-|to- ri|tu- *|
 B8 || B2 A2 G2 (A2 B2 c2) c4 B4 || B8 | B8 | c8 | B8 || B2 A2 G2 (A2 B2 c2) c4 B4 || B8 | B4 c4 | %29
w: o.|A- gi- os o _ _ The- os.|San-|ctus|De-|us|A- gi- os is- * * cy- ros.|San-|ctus for-|
 B8 || (B2 c2) B2 A2 | (A2 B2) c2 A2 | B2 (G2 A2) (B2 | c2) (B2 A2) (F2 | A2 B2 c2 x2 | c4) B4 || %36
w: tis.|A- * gi- os|a- * tha- na-|tos, e- * lei-|* son _ i-||* mas.|
 B4 B4 | c2 c2 (e4 | d4) c2 e2- | e2 d2 c2 B2 | (A6 G2 | F2 E4 D2) | E8 :| G4 G2 G2 | G3 G G4 | %45
w: San- cus|im- mor- ta-|* lis mi-|* se- re- re|no- *||bis.|Qui- a e-|du- xi- te|
 z2 GG G2 G2- | G2 GG G2 G2 | B8 | B4 z2 B2 | c4 B2 B2 | A3 A G2 G2 | B2 B2 e2 e2 | d6 d2 | %53
w: per de- ser- tum|_ qua- dra- gin- ta|an-|nis et|man- na ci-|ba- vi te et|in- tro- du- xi-|te, in|
 c2 c2 c2 c2 | (B6 =A2) | B2 B2 c4 | B4 A4 | G4 G2 G2 | F4 A4 | (G4 A4) | B8 |] %61
w: ter- ram sa- tis|bo- *|nam pa- ra-|sti cru-|cem Sal- va-|to- ri|tu- *|o.|
V:2
 E4 E2 E2 | E4 E4 | z2 E2 E2 E2 | G4 F4 | G4 z2 F2 | F2 F2 G3 G | G2 G2 G2 G2 | F4 E4 | F8 | G8 | %10
w: P—- pu- le|me- us,|quid fe- ci|ti- *|bi? aut|in quo con- tri-|sta- vi- te? Res-|pon- de|mi-|hi.|
 E4 E4 | z2 E2 E2 E2 | G6 G2 | F4 A2 A2 | F4 E4 | F2 F2 A4 | G4 F4 | E4 E2 E2 | _D4 (C2 =D2) | %19
w: Qui- a|e- du- xi-|te de|ter- ra Ae-|gyp- ti,|ti, pa- ra-|sti cru-|cem Sal- va-|to- ri _|
 E2 (E6- | E2 DC) D4 || x20 || G8 | F8 | A8 | G8 || x20 || G8 | G4 F4 | G8 || x8 | x8 | x8 | x8 | %34
w: _ tu-|* * * o.||San-|ctus|De-|us||San-|ctus for-|tis.|||||
 x8 | x8 || G4 G4 | A2 A2 G4- | G4 G4- | G4 z4 | z4 E3 D | C2 C2 B,4 | B,8 :| E4 E2 E2 | E3 E E4 | %45
w: ||San- cus|im- mor- ta-|* lis|_|mi- se-|re- re no-|bis.|Qui- a e-|du- xi- te|
 z2 EE E2 E2- | E2 EE E2 E2 | G4 F4 | G4 z2 G2 | A4 G2 E2 | E2 D2 E2 E2 | F2 B2 G2 G2 | G6 G2 | %53
w: per de- ser- tum|_ qua- dra- gin- ta|an- *|nis et|man- na ci-|ba- vi te et|in- tro- du- xi-|te, in|
 E2 F2 A2 G2 | (F4 E4) | F2 G2 A4 | G4 F4 | E4 E2 E2 | _D4 (C2 =D2 | E2) (E6- | E2 DC) D4 |] %61
w: ter- ram sa- tis|bo- *|nam pa- ra-|sti cru-|cem Sal- va-|to- ri _|_ tu-|* * * o.|
V:3
 B4 B2 B2 | B4 B4 | z2 B2 B2 c2 | (d2 e4 d2) | e4 z2 d2 | d2 d2 e3 e | e2 e2 e2 e2 | d4 c2 (e2- | %8
w: P—- pu- le|me- us,|quid fe- ci|ti- * *|bi? aut|in quo con- tri-|sta- vi- te? Res-|pon- de *|
 e2 dc d4) | e8 | B4 B4 | z2 B2 B2 c2 | d6 d2 | c4 f2 e2 | e2 d2 c4 | d2 d2 e4 | e4 c4 | c4 c2 c2 | %18
w: mi- * * *|hi.|Qui- a|e- du- xi-|te de|ter- ra Ae-|gyp- * ti,|ti, pa- ra-|sti cru-|cem Sal- va-|
 A4 A2 (A2 | B2 G2 F2 E2) | F8 || x20 || z4 e4- | e4 d4 | e8 | e8 || x20 || e8 | d4 c4 | e8 || x8 | %31
w: to- ri tu-||o.||San-|* ctus|De-|us||San-|ctus for-|tis.||
 x8 | x8 | x8 | x8 | x8 || e4 e4 | e2 A2 (B2 c2- | c2 =B2) c4 | G4 z2 e2- | e2 d2 c2 _B2 | %41
w: |||||San- cus|im- mor- ta- *|* * lis|* mi-|* se- re- re|
 (A3 G F4) | E8 :| B4 B2 B2 | B3 B B4 | z2 BB B2 B2- | B2 cc c2 c2 | d2 e4 d2 | e4 z2 e2 | %49
w: no- * *|bis.|Qui- a e-|du- xi- te|per de- ser- tum|* qua- dra- gin- ta|an- * *|nis et|
 e4 e2 G2 | A3 A B2 B2 | d2 d2 c2 c2 | =B6 B2 | c2 c2 f2 e2 | (e2 d2 c4) | d2 d2 e4 | e4 c4 | %57
w: man- na ci-|ba- vi te et|in- tro- du- xi-|te, in|ter- ram sa- tis|bo- * *|nam pa- ra-|sti cru-|
 c4 c2 c2 | A4 A2 (A2 | B2 G2 F2 E2) | F8 |] %61
w: cem Sal- va-|to- ri tu-||o.|
V:4
 E,4 E,2 E,2 | E,4 E,4 | z2 E,2 E,2 C,2 | (G,3 A, B,4) | E,4 z2 B,,2 | B,,2 B,,2 E,3 E, | %6
w: P—- pu- le|me- us,|quid fe- ci|ti- * *|bi? aut|in quo con- tri-|
 E,2 E,2 E,2 E,2 | B,4 C4 | B,8 | E,8 | E,4 E,4 | z2 E,2 E,2 C,2 | G,6 G,2 | A,4 F,2 F,2 | B,4 C4 | %15
w: sta- vi- te? Res-|pon- de|mi-|hi.|Qui- a|e- du- xi-|te de|ter- ra Ae-|gyp- ti,|
 B,2 B,2 A,4 | E,4 F,4 | C,4 C,2 C,2 | _D,4 F,4 | (E,4 C,4) | B,,8 || x20 || E,8 | B,8 | A,8 | %25
w: ti, pa- ra-|sti cru-|cem Sal- va-|to- ri|tu- *|o.||San-|ctus|De-|
 E,8 || x20 || E,8 | G,4 A,4 | E,8 || x8 | x8 | x8 | x8 | x8 | x8 || E,4 E,4 | A,2 F,2 (E,3 F, | %38
w: us||San-|ctus for-|tis.|||||||San- cus|im- mor- ta- *|
 G,4) C,2 C2- | C2 B,2 A,2 G,2 | (F,4 E,4 | A,,4 B,,4) | E,,8 :| E,4 E,2 E,2 | E,3 E, E,4 | %45
w: * lis mi-|* se- re- re|no- *||bis.|Qui- a e-|du- xi- te|
 z2 E,E, E,2 E,2- | E,2 C,C, C,2 C,2 | G,3 A, B,4 | E,4 z2 E,2 | A,4 G,2 G,2 | F,3 F, E,2 E,2 | %51
w: per de- ser- tum|_ qua- dra- gin- ta|an- * *|nis et|man- na ci-|ba- vi te et|
 B,,2 B,2 C2 C2 | G,6 G,2 | A,2 A,2 F,2 F,2 | (B,4 C4) | B,2 B,2 A,4 | E,4 F,4 | C,4 C,2 C,2 | %58
w: in- tro- du- xi-|te, in|ter- ram sa- tis|bo- *|nam pa- ra-|sti cru-|cem Sal- va-|
 _D,4 F,4 | (E,4 C,4) | B,,8 |] %61
w: to- ri|tu- *|o.|

